public/img/assets/icons/face_sun.svg

<svg width="120" height="120" viewBox="0 0 120 120" fill="none" xmlns="http://www.w3.org/2000/svg">
<circle cx="60" cy="60" r="23" fill="#FDF72A"/>
<path fill-rule="evenodd" clip-rule="evenodd" d="M60 71C62.3081 71 64.3993 70.2599 66.0213 69.0541C66.9077 68.3951 68.1626 68.2797 69 69V69C69.8374 69.7203 69.9403 70.9967 69.0997 71.7133C66.6909 73.767 63.4861 75 60 75C56.5139 75 53.3091 73.767 50.9003 71.7133C50.0597 70.9967 50.1626 69.7203 51 69V69C51.8374 68.2797 53.0923 68.3951 53.9788 69.0541C55.6007 70.2599 57.692 71 60 71Z" fill="#F7D056"/>
<path fill-rule="evenodd" clip-rule="evenodd" d="M33 51C33 48.2386 35.2386 46 38 46H50C52.0503 46 53.8124 47.2341 54.584 49H64.416C65.1876 47.2341 66.9497 46 69 46H81C83.7614 46 86 48.2386 86 51V58C86 60.7614 83.7614 63 81 63H69C66.2386 63 64 60.7614 64 58V55H55V58C55 60.7614 52.7614 63 50 63H38C35.2386 63 33 60.7614 33 58V51Z" fill="#F7D056"/>
<path fill-rule="evenodd" clip-rule="evenodd" d="M82.8493 62.6468C82.9489 61.7784 83 60.8951 83 60C83 54.732 81.2289 49.8777 78.2497 46H69C66.9497 46 65.1876 47.2341 64.416 49H54.584C53.8124 47.2341 52.0503 46 50 46H41.7502C38.7711 49.8777 37 54.732 37 60C37 60.994 37.0631 61.9732 37.1854 62.934C37.4505 62.9774 37.7226 63 38 63H50C52.7614 63 55 60.7614 55 58V55H64V58C64 60.7614 66.2386 63 69 63H81C81.6533 63 82.2773 62.8747 82.8493 62.6468Z" fill="#FEB800"/>
</svg>

<svg xmlns="http://www.w3.org/2000/svg" fill="none" viewBox="0 0 120 120"><circle fill="#FDF72A" cx="60" cy="60" r="23"/><path d="M60 71c2.3 0 4.4-.74 6.02-1.95.89-.65 2.14-.77 2.98-.05.84.72.94 2 .1 2.71A14 14 0 0 1 60 75a14 14 0 0 1-9.1-3.28c-.84-.71-.74-2 .1-2.7.84-.72 2.1-.6 2.98.05A10.07 10.07 0 0 0 60 71ZM33 51a5 5 0 0 1 5-5h12a5 5 0 0 1 4.58 3h9.84A5 5 0 0 1 69 46h12a5 5 0 0 1 5 5v7a5 5 0 0 1-5 5H69a5 5 0 0 1-5-5v-3h-9v3a5 5 0 0 1-5 5H38a5 5 0 0 1-5-5v-7Z" fill="#F7D056" fill-rule="evenodd" clip-rule="evenodd"/><path d="M82.85 62.65A22.9 22.9 0 0 0 78.25 46H69a5 5 0 0 0-4.58 3h-9.84A5 5 0 0 0 50 46h-8.25a22.9 22.9 0 0 0-4.56 16.93c.26.05.53.07.81.07h12a5 5 0 0 0 5-5v-3h9v3a5 5 0 0 0 5 5h12c.65 0 1.28-.13 1.85-.35Z" fill="#FEB800" fill-rule="evenodd" clip-rule="evenodd"/></svg>
